X:1
T:Growling Old Man and Woman
R:reel
M:C|
%%printtempo 0
Q:200
K:Ador
A,B,|\
"Am"CA,EA, CA,EA,|"G"B,G,DG, B,G,DG,|"Am"CA,EA, CA,EA,|"G" B,A,G,B, "Am"A,2:|
|:[K:A](^cd)|\
"A"efed cdef|"G"=ged=c BG^cd|"A"efed cAcd|e2(a^g) a2(ef)|
=gfed cdef|"G"=ged=c BGBd|"Am"=c2 ((3BcB) A=GED|"Em"(ED)=C2A,:|
